resources/icons/16px/notifications-updated.svg

<?xml version="1.0" encoding="UTF-8"?>
<svg width="16px" height="16px" viewBox="0 0 16 16" version="1.1" xmlns="http://www.w3.org/2000/svg" xmlns:xlink="http://www.w3.org/1999/xlink">
    <!-- Generator: Sketch 50.2 (55047) - http://www.bohemiancoding.com/sketch -->
    <title>Artboard</title>
    <desc>Created with Sketch.</desc>
    <defs></defs>
    <g id="Artboard" stroke="none" stroke-width="1" fill="none" fill-rule="evenodd">
        <path d="M8,16 C9.1,16 10,15.1 10,14 L6,14 C6,15.1 6.9,16 8,16 Z M11.3988293,2.3327436 L10.9863452,2.7452277 C10.4444602,2.26362341 9.73941685,1.99 9,1.99 C7.35007948,1.99 6,3.33076859 6,4.98 C6,5.77905591 6.3195427,6.53796982 6.87578644,7.09421356 L8.87803609,9.08646082 C9.43407546,9.64131786 10.1920208,9.96 10.99,9.96 C11.7402238,9.96 12.455062,9.67831985 13,9.18352254 L13,10 C13,10.55 13.45,11 14,11 C14.55,11 15,11.45 15,12 C15,12.55 14.55,13 14,13 L2,13 C1.45,13 1,12.55 1,12 C1,11.45 1.45,11 2,11 C2.55,11 3,10.55 3,10 L3,6 C3,3.57 4.73,1.55 7.02,1.1 C7.02,1.06 7,1.04 7,1 C7,0.45 7.45,0 8,0 C8.55,0 9,0.45 9,1 C9,1.04 8.98,1.06 8.98,1.1 C9.90270511,1.2813176 10.7344937,1.71752622 11.3988293,2.3327436 Z M10.29,7.67 L8.29,5.68 C8.11,5.5 8,5.25 8,4.98 C8,4.44 8.45,3.99 9,3.99 C9.27,3.99 9.52,4.1 9.7,4.28 L10.99,5.57 L14.27,2.29 C14.45,2.11 14.69,2 14.97,2 C15.52,2 15.97,2.44 15.97,2.99 C15.97,3.27 15.86,3.51 15.67,3.69 L11.69,7.67 C11.51,7.85 11.26,7.96 10.99,7.96 C10.72,7.96 10.47,7.85 10.29,7.67 Z" id="Shape" fill="#000000" fill-rule="nonzero"></path>
    </g>
</svg>

<svg xmlns="http://www.w3.org/2000/svg" viewBox="0 0 16 16">
  <path d="M8 16c1.1 0 2-.9 2-2H6c0 1.1.9 2 2 2m3.399-13.667-.413.412A3 3 0 0 0 9 1.99a3 3 0 0 0-3 2.99c0 .8.32 1.558.876 2.114l2.002 1.992A2.99 2.99 0 0 0 13 9.184V10c0 .55.45 1 1 1s1 .45 1 1-.45 1-1 1H2c-.55 0-1-.45-1-1s.45-1 1-1 1-.45 1-1V6c0-2.43 1.73-4.45 4.02-4.9 0-.04-.02-.06-.02-.1 0-.55.45-1 1-1s1 .45 1 1c0 .04-.02.06-.02.1a4.97 4.97 0 0 1 2.419 1.233M10.29 7.67l-2-1.99a1 1 0 0 1-.29-.7 1 1 0 0 1 1-.99c.27 0 .52.11.7.29l1.29 1.29 3.28-3.28c.18-.18.42-.29.7-.29.55 0 1 .44 1 .99 0 .28-.11.52-.3.7l-3.98 3.98a.99.99 0 0 1-1.4 0"/>
</svg>
